www/src/assets/react.svg

<svg viewBox="0 0 47 42" xmlns="http://www.w3.org/2000/svg"><g fill="none" fill-rule="evenodd" transform="translate(1)"><g fill="#639"><path d="m30.5 35.454c-3.13 1.808-10.293-3.827-15.562-12.954-5.27-9.127-6.57-18.147-3.438-19.954 3.13-1.808 10.293 3.827 15.562 12.954 5.27 9.127 6.57 18.147 3.438 19.954zm1 1.733c4.522-2.61 3.07-12.682-2.706-22.687s-13.772-16.297-18.294-13.687-3.07 12.682 2.706 22.687 13.772 16.297 18.294 13.687z"/><path d="m0 19c0 5.22 9.448 9 21 9s21-3.78 21-9-9.448-9-21-9-21 3.78-21 9zm2 0c0-3.616 8.46-7 19-7s19 3.384 19 7-8.46 7-19 7-19-3.384-19-7z"/><path d="m28.794 23.5c5.776-10.005 7.228-20.076 2.706-22.687-4.522-2.61-12.518 3.682-18.294 13.687s-7.228 20.076-2.706 22.687c4.522 2.61 12.518-3.682 18.294-13.687zm-13.856-8c5.27-9.127 12.43-14.762 15.562-12.954 3.13 1.807 1.832 10.827-3.438 19.954s-12.43 14.762-15.562 12.954c-3.13-1.807-1.832-10.827 3.438-19.954z"/></g><rect fill="#ffb238" height="8" rx="4" width="8" x="17" y="15"/></g></svg>

<svg viewBox="0 0 47 42" xmlns="http://www.w3.org/2000/svg">
  <title>
    react js logo
  </title>
  <g transform="translate(1)" fill="none" fill-rule="evenodd">
    <path d="M30.5 35.454c-3.13 1.808-10.293-3.827-15.562-12.954-5.27-9.127-6.57-18.147-3.438-19.954C14.63.738 21.793 6.373 27.062 15.5c5.27 9.127 6.57 18.147 3.438 19.954zm1 1.733c4.522-2.61 3.07-12.682-2.706-22.687S15.022-1.797 10.5.813C5.978 3.423 7.43 13.495 13.206 23.5S26.978 39.797 31.5 37.187z" fill="#663399"/>
    <path d="M0 19c0 5.22 9.448 9 21 9s21-3.78 21-9c0-5.22-9.448-9-21-9S0 13.78 0 19zm2 0c0-3.616 8.46-7 19-7s19 3.384 19 7-8.46 7-19 7-19-3.384-19-7z" fill="#663399"/>
    <path d="M28.794 23.5C34.57 13.495 36.022 3.424 31.5.813 26.978-1.797 18.982 4.495 13.206 14.5 7.43 24.505 5.978 34.576 10.5 37.187c4.522 2.61 12.518-3.682 18.294-13.687zm-13.856-8C20.208 6.373 27.368.738 30.5 2.546c3.13 1.807 1.832 10.827-3.438 19.954-5.27 9.127-12.43 14.762-15.562 12.954-3.13-1.807-1.832-10.827 3.438-19.954z" fill="#663399"/>
    <rect fill="#ffb238" x="17" y="15" width="8" height="8" rx="4"/>
  </g>
</svg>
